X:1
T:Title
%%score { 1 | 2 }
L:1/8
M:9/8
K:Bb
V:1 bass nm="Grand Piano"
V:2 bass 
V:1
 z3 z3[Q:1/4=100] [F,B,D][F,B,D][F,CE] | [B,DF]3 [B,FB]3 [B,GB][B,FA][B,EG] | [B,DF]6 CCD | %3
 E3 G3 GFE | D6 DD[CE] | [DF]3 [FB]3 [Fd][Fc][FB] | G6 GAB | F3 d3 cBc |[M:3/4] [DB]6 | %9
[M:3/8] ccc |[M:9/8] c3 F3 AGA | [DB]6 ccc | c3 F3 [FB][FB]c | d6 DD[CE] | %14
 [DF]3 [FB]3 [Fd][Fc][FB] | G6 GAB | F3 d3 cBc |[M:3/4] [DB]6 |] %18
V:2
 z3 z3 B,,B,,B,, | B,,3 D,3 E,E,E, | B,,6 [F,A,][F,A,][F,B,] | %3
 [F,A,C]3 [F,A,E]3 [F,A,E][F,A,D][F,A,C] | [B,,F,B,]6 [B,,F,B,][B,,F,B,][B,,F,] | %5
 [B,,B,]3 [D,B,]3 [B,,B,][C,A,][D,B,] | [E,B,E]6 [=E,B,_D][E,A,D][E,G,D] | %7
 [F,B,D]3 [F,B,F]3 [F,A,E][F,B,D][F,A,E] |[M:3/4] [B,,B,]6 |[M:3/8] [F,A,E][F,A,E][F,A,E] | %10
[M:9/8] [F,A,E]3 [F,A,E]3 [F,CE][F,CE][F,CE] | [B,,B,]6 [F,A,E][F,A,E][F,A,E] | %12
 [F,A,E]3 [E,A,]3 [D,B,][D,B,][K:treble][F,A,F] | [B,F]6[K:bass] [B,,F,B,][B,,F,B,][B,,F,] | %14
 [B,,B,]3 [D,B,]3 [B,,B,][C,A,][D,B,] | [E,B,E]6 [=E,B,_D][E,A,D][E,G,D] | %16
 [F,B,D]3 [F,B,F]3 [F,A,E][F,B,D][F,A,E] |[M:3/4] [B,,F,B,]6 |] %18

